X:13557
T:President Garfield's
R:Reel
S:
H:
N:
D:Brendan Begley. Also Laoise Kelly:Just Harp
Z:Adrian Scahill
M:4/4
L:1/8
K:A
AEE2 AECE|AEAB cBcd|eBB2 eBGB|eBef edCB|\
AEE2 AECE|AGAB cBcd|eagf edcB|1 A2GB A2cB:|2 A2GB A2ag||\
fdAF DFAf|ecAE CEfe|d+BG+fe d+BG+fe|cAfe cAde|\
fdAF DFAf|ecAE CEAf|efgf edcB|(3ABA GB A2ag:||


